assets/shopping-color/ShoppingColor16.svg

<svg xmlns="http://www.w3.org/2000/svg" data-name="Layer 3" viewBox="0 0 128 128"><path fill="#01a9bb" d="M64.536 21.908L98.9 33.075v25.341s1.357 35.794-34.577 47.678h-.646C27.741 94.21 29.1 58.416 29.1 58.416V33.075l34.363-11.167z"/><path fill="#27bdc1" d="M34.458 58.416v-25.9l31.455-10.161-1.377-.447h-1.073L29.1 33.075v25.341s-1.36 35.794 34.574 47.678h.646c.811-.268 1.582-.562 2.356-.854C33.18 92.6 34.458 58.416 34.458 58.416z"/><path fill="#f0e9e0" d="M63.944 30.664l-25.785 8.677V59.03s.966 27.37 25.946 37.045C89.086 86.4 90.052 59.03 90.052 59.03V39.341l-25.785-8.677z"/><path fill="#f7f7f7" d="M43.134 59.03V38.308l22.646-7.135-1.512-.509h-.323l-25.786 8.677V59.03s.966 27.37 25.947 37.045a41.486 41.486 0 002.487-1.064C44.04 84.544 43.134 59.03 43.134 59.03z"/><path fill="#231f20" d="M100.429 58.416V33.075a1.531 1.531 0 00-1.058-1.456L65.008 20.452a1.514 1.514 0 00-1.008.022 1.514 1.514 0 00-1.009-.022L28.628 31.619a1.531 1.531 0 00-1.058 1.456v25.283c-.015.369-.98 37.084 35.622 49.189a1.51 1.51 0 00.481.078h.646a1.51 1.51 0 00.481-.078c36.6-12.105 35.642-48.82 35.629-49.131zm-36.356 46.147h-.149C29.776 93.119 30.579 59.885 30.631 58.416V34.187l33.3-10.824.069-.022.063.022 33.304 10.824v24.287c.015.346.912 34.621-33.294 46.089z"/><path fill="#231f20" d="M90.541 37.89l-25.785-8.678a2.984 2.984 0 00-1.3 0L37.67 37.89a1.533 1.533 0 00-1.042 1.451v19.743c.009.284 1.3 28.492 26.922 38.419a1.537 1.537 0 001.106 0c25.627-9.927 26.916-38.135 26.927-38.473V39.341a1.533 1.533 0 00-1.042-1.451zM64.106 94.43C40.923 85.053 39.7 59.237 39.69 59.03V40.441l24.416-8.217 24.416 8.217v18.534c-.01.262-1.234 26.078-24.416 35.455z"/><path fill="#231f20" d="M80.111 52.736l-18.442 22.09-11.916-12.513a1.531 1.531 0 00-2.218 2.111l13.1 13.757a1.535 1.535 0 001.109.475h.049a1.528 1.528 0 001.126-.549L82.461 54.7a1.53 1.53 0 10-2.35-1.961z"/></svg>

<svg id="Layer_3" data-name="Layer 3" xmlns="http://www.w3.org/2000/svg" viewBox="0 0 128 128"><title>Artboard 112</title><path d="M64.536,21.908,98.9,33.075V58.416s1.357,35.794-34.577,47.678h-.646C27.741,94.21,29.1,58.416,29.1,58.416V33.075L63.463,21.908Z" style="fill:#01a9bb"/><path d="M34.458,58.416v-25.9L65.913,22.355l-1.377-.447H63.463L29.1,33.075V58.416s-1.36,35.794,34.574,47.678h.646c.811-.268,1.582-.562,2.356-.854C33.18,92.6,34.458,58.416,34.458,58.416Z" style="fill:#27bdc1"/><path d="M63.944,30.664,38.159,39.341V59.03S39.125,86.4,64.105,96.075C89.086,86.4,90.052,59.03,90.052,59.03V39.341L64.267,30.664Z" style="fill:#f0e9e0"/><path d="M43.134,59.03V38.308l22.646-7.135-1.512-.509h-.323L38.159,39.341V59.03S39.125,86.4,64.106,96.075c.859-.333,1.684-.691,2.487-1.064C44.04,84.544,43.134,59.03,43.134,59.03Z" style="fill:#f7f7f7"/><path d="M100.429,58.416V33.075a1.531,1.531,0,0,0-1.058-1.456L65.008,20.452A1.514,1.514,0,0,0,64,20.474a1.514,1.514,0,0,0-1.009-.022L28.628,31.619a1.531,1.531,0,0,0-1.058,1.456V58.358c-.015.369-.98,37.084,35.622,49.189a1.51,1.51,0,0,0,.481.078h.646a1.51,1.51,0,0,0,.481-.078C101.4,95.442,100.442,58.727,100.429,58.416ZM64.073,104.563h-.149C29.776,93.119,30.579,59.885,30.631,58.416V34.187l33.3-10.824L64,23.341l.063.022L97.367,34.187V58.474C97.382,58.82,98.279,93.095,64.073,104.563Z" style="fill:#231f20"/><path d="M90.541,37.89,64.756,29.212a2.984,2.984,0,0,0-1.3,0L37.67,37.89a1.533,1.533,0,0,0-1.042,1.451l0,19.743c.009.284,1.3,28.492,26.922,38.419a1.537,1.537,0,0,0,1.106,0C90.283,87.576,91.572,59.368,91.583,59.03V39.341A1.533,1.533,0,0,0,90.541,37.89ZM64.106,94.43C40.923,85.053,39.7,59.237,39.69,59.03V40.441l24.416-8.217,24.416,8.217,0,18.534C88.512,59.237,87.288,85.053,64.106,94.43Z" style="fill:#231f20"/><path d="M80.111,52.736,61.669,74.826,49.753,62.313a1.531,1.531,0,0,0-2.218,2.111l13.1,13.757a1.535,1.535,0,0,0,1.109.475h.049a1.528,1.528,0,0,0,1.126-.549L82.461,54.7a1.53,1.53,0,1,0-2.35-1.961Z" style="fill:#231f20"/></svg>
